icons/car-side.svg

<?xml version="1.0" encoding="UTF-8"?><svg id="uuid-8e1e1210-7562-4212-a33f-dcb0103a2e90" xmlns="http://www.w3.org/2000/svg" viewBox="0 0 50 50"><path d="M48.39,30.65h-.63v-2.56s0-.03,0-.05v-2.23s0-.03,0-.05v-2.67c0-.28-.22-.5-.5-.5h-7.53l-6.19-11.85c-.09-.17-.26-.27-.44-.27H11.51c-.23,0-.43,.15-.48,.37l-3.11,11.75H2.02c-.28,0-.5,.22-.5,.5v2.67s0,.03,0,.05v2.23s0,.03,0,.05v2.56h-.41c-.28,0-.5,.22-.5,.5v3.08c0,.28,.22,.5,.5,.5H6.03c.35,2.7,2.66,4.8,5.46,4.8s5.11-2.09,5.46-4.8h15.18c.35,2.7,2.66,4.8,5.46,4.8s5.11-2.09,5.46-4.8h5.35c.28,0,.5-.22,.5-.5v-3.08c0-.28-.22-.5-.5-.5Zm-.5,3.08h-4.81c-.04-.74-.22-1.45-.53-2.08h5.34v2.08Zm-14.82,.29c0-2.49,2.02-4.51,4.51-4.51s4.51,2.02,4.51,4.51-2.02,4.51-4.51,4.51-4.51-2.02-4.51-4.51Zm-16.09-.29c-.04-.74-.22-1.45-.53-2.08h16.16c-.31,.64-.49,1.34-.53,2.08h-15.1Zm-10,.29c0-2.49,2.02-4.51,4.51-4.51s4.51,2.02,4.51,4.51-2.02,4.51-4.51,4.51-4.51-2.02-4.51-4.51Zm-5.37-.29v-2.08H6.53c-.31,.64-.49,1.34-.53,2.08H1.61Zm45.16-7.43v1.23h-1.69v-1.23h1.69Zm-13.97-14.84l5.8,11.12h-2.54l-4.33-8.94c-.08-.17-.26-.28-.45-.28h-5.69c-.28,0-.5,.22-.5,.5v8.73h-2.08V13.86c0-.28-.22-.5-.5-.5H13.83c-.23,0-.44,.16-.49,.39l-1.97,8.84h-2.42l2.95-11.12h20.9Zm-6.71,2.9h4.88l3.98,8.23h-8.86V14.36Zm-11.86,0h7.77v8.23H12.4l1.84-8.23ZM2.51,27.54v-1.23h1.73v1.23h-1.73Zm0,1h2.22c.28,0,.5-.22,.5-.5v-2.23c0-.28-.22-.5-.5-.5H2.52v-1.72H46.76v1.72h-2.18c-.28,0-.5,.22-.5,.5v2.23c0,.28,.22,.5,.5,.5h2.18v2.11h-4.82c-1.01-1.3-2.58-2.14-4.35-2.14s-3.34,.84-4.35,2.14H15.84c-1.01-1.3-2.58-2.14-4.35-2.14s-3.34,.84-4.35,2.14H2.52v-2.11Z"/><path d="M13.83,34.02c0-1.29-1.05-2.34-2.34-2.34s-2.34,1.05-2.34,2.34,1.05,2.34,2.34,2.34,2.34-1.05,2.34-2.34Zm-3.68,0c0-.74,.6-1.34,1.34-1.34s1.34,.6,1.34,1.34-.6,1.34-1.34,1.34-1.34-.6-1.34-1.34Z"/><path d="M35.24,34.02c0,1.29,1.05,2.34,2.34,2.34s2.34-1.05,2.34-2.34-1.05-2.34-2.34-2.34-2.34,1.05-2.34,2.34Z" fill="none"/><path d="M9.15,34.02c0,1.29,1.05,2.34,2.34,2.34s2.34-1.05,2.34-2.34-1.05-2.34-2.34-2.34-2.34,1.05-2.34,2.34Z" fill="none"/><path d="M14.84,15.25c-2.41,2.21-1.95,6.3-1.68,7.89,.31,.04,.62,.07,.94,.11h7.76l.88-.22c.16-2.36,.26-4.78,.27-7.27,0-.3,0-.61,0-.91h-7.67c-.18,.12-.34,.25-.49,.39Z" fill="none"/><path d="M31.88,14.86h-4.79c-.19,.16-.36,.33-.5,.5-2.05,2.47-.41,6.79,0,7.78l.83-.06c2.81,.04,5.61,.07,8.42,.11-1.08-2.51-2.27-5.05-3.58-7.6-.13-.25-.26-.5-.39-.74Z" fill="none"/><path d="M39.93,34.02c0-1.29-1.05-2.34-2.34-2.34s-2.34,1.05-2.34,2.34,1.05,2.34,2.34,2.34,2.34-1.05,2.34-2.34Zm-3.68,0c0-.74,.6-1.34,1.34-1.34s1.34,.6,1.34,1.34-.6,1.34-1.34,1.34-1.34-.6-1.34-1.34Z"/><path d="M26.09,21.72v-5.57c-.86,1.76-.45,4.05,0,5.57Z" fill="none"/><path d="M31.88,14.86h-.67l3.74,7.73h-8.57c.08,.23,.16,.43,.21,.56l.83-.06c2.81,.04,5.61,.07,8.42,.11-1.08-2.51-2.27-5.05-3.58-7.6-.13-.25-.26-.5-.39-.74Z" fill="none"/><path d="M12.95,20.09l.72-3.21c-.48,1.02-.67,2.15-.72,3.21Z" fill="none"/><path d="M22.01,22.59H13.08c.03,.21,.06,.4,.08,.56,.31,.04,.62,.07,.94,.11h7.76l.88-.22c.16-2.36,.26-4.78,.27-7.27,0-.3,0-.61,0-.91h-1v7.73Z" fill="none"/><path d="M24.75,26.31h2.55c.28,0,.5-.22,.5-.5s-.22-.5-.5-.5h-2.55c-.28,0-.5,.22-.5,.5s.22,.5,.5,.5Z"/></svg>

<svg id="b9ff89f7-a6f0-458c-a77a-bb28b101d9b5" data-name="ICONS" xmlns="http://www.w3.org/2000/svg" viewBox="0 0 50 50"><path d="M48.39,30.65h-.63V28.09s0,0,0-.05V25.81s0,0,0,0V23.09a.5.5,0,0,0-.5-.5H39.73L33.54,10.74a.49.49,0,0,0-.44-.27H11.51a.49.49,0,0,0-.48.37L7.92,22.59H2a.5.5,0,0,0-.5.5v2.67s0,0,0,0V28s0,0,0,.05v2.56H1.11a.5.5,0,0,0-.5.5v3.09a.5.5,0,0,0,.5.5H6a5.51,5.51,0,0,0,10.92,0H32.13a5.5,5.5,0,0,0,10.91,0h5.35a.5.5,0,0,0,.5-.5V31.15A.5.5,0,0,0,48.39,30.65Zm-.5,3.09H43.08a5.42,5.42,0,0,0-.53-2.09h5.34ZM33.08,34a4.51,4.51,0,1,1,4.5,4.51A4.52,4.52,0,0,1,33.08,34ZM17,33.74a5.6,5.6,0,0,0-.53-2.09H32.62a5.42,5.42,0,0,0-.53,2.09ZM7,34a4.51,4.51,0,1,1,4.51,4.51A4.52,4.52,0,0,1,7,34Zm-5.37-.28V31.65H6.53A5.42,5.42,0,0,0,6,33.74Zm45.16-7.43v1.23H45.08V26.31Zm-14-14.84,5.8,11.12H36.06l-4.33-8.95a.5.5,0,0,0-.45-.28H25.59a.5.5,0,0,0-.5.5v8.73H23V13.86a.51.51,0,0,0-.5-.5H13.83a.51.51,0,0,0-.49.39l-2,8.84H9l3-11.12Zm-6.71,2.89H31l4,8.23H26.09Zm-11.86,0H22v8.23H12.4ZM2.51,27.54V26.31H4.24v1.23Zm0,1H4.74a.5.5,0,0,0,.5-.5V25.81a.5.5,0,0,0-.5-.5H2.52V23.59H46.76v1.72H44.58a.5.5,0,0,0-.5.5V28a.5.5,0,0,0,.5.5h2.18v2.11H41.93a5.48,5.48,0,0,0-8.69,0H15.84a5.49,5.49,0,0,0-8.7,0H2.52Z"/><path d="M13.83,34a2.34,2.34,0,1,0-2.34,2.34A2.34,2.34,0,0,0,13.83,34Zm-3.68,0a1.34,1.34,0,1,1,1.34,1.34A1.34,1.34,0,0,1,10.15,34Z"/><path d="M35.24,34a2.35,2.35,0,1,0,2.34-2.34A2.34,2.34,0,0,0,35.24,34Z" fill="none"/><path d="M9.15,34a2.34,2.34,0,1,0,2.34-2.34A2.34,2.34,0,0,0,9.15,34Z" fill="none"/><path d="M14.84,15.25c-2.41,2.21-1.94,6.3-1.68,7.9l.94.11h7.76l.88-.22c.16-2.36.26-4.78.27-7.27v-.91H15.33C15.16,15,15,15.12,14.84,15.25Z" fill="none"/><path d="M31.88,14.86H27.09a4.72,4.72,0,0,0-.5.5c-2.05,2.47-.41,6.79,0,7.79l.83-.06,8.42.11c-1.08-2.51-2.27-5.05-3.58-7.59Z" fill="none"/><path d="M39.93,34a2.35,2.35,0,1,0-2.35,2.34A2.35,2.35,0,0,0,39.93,34Zm-3.69,0a1.35,1.35,0,1,1,1.34,1.34A1.35,1.35,0,0,1,36.24,34Z"/><path d="M26.09,21.72V16.16C25.23,17.92,25.64,20.2,26.09,21.72Z" fill="none"/><path d="M31.88,14.86h-.67L35,22.59H26.37c.09.23.16.43.22.56l.83-.06,8.42.11c-1.08-2.51-2.27-5.05-3.58-7.59Z" fill="none"/><path d="M13,20.09l.72-3.21A8.5,8.5,0,0,0,13,20.09Z" fill="none"/><path d="M22,22.59H13.08c0,.21.06.4.08.56l.94.11h7.76l.88-.22c.16-2.36.26-4.78.27-7.27v-.91H22Z" fill="none"/><path d="M24.75,26.31H27.3a.5.5,0,0,0,0-1H24.75a.5.5,0,0,0,0,1Z"/></svg>
